X:7
T:Jamie Shearer
R: reel
C: J. Scott Skinner
M:2/4
L:1/16
Z: Jason R. Fruit <JasonFruit@gmail.com>
K:D
A | .d.c.B.A {c}d2(Ad) | cdAd .Be-e.g | .f.e.d.c {c}d2AF | GBEA FD[DA,] :|
G | FAdA BGGf | gfed cAAG | FAde fdAF | GEAG FDD G|
FAdA BGGf | gfed cABc | {c}d2(cd) BdAd | cbag fdd |]

